svgs/sharp-light/i-cursor.svg

<svg xmlns="http://www.w3.org/2000/svg" viewBox="0 0 256 512"><!--! Font Awesome Pro 6.6.0 by @fontawesome - https://fontawesome.com License - https://fontawesome.com/license (Commercial License) Copyright 2024 Fonticons, Inc. --><path d="M128 66C106.2 26.6 64.2 0 16 0L0 0 0 32l16 0c53 0 96 43 96 96l0 112-48 0-16 0 0 32 16 0 48 0 0 112c0 53-43 96-96 96L0 480l0 32 16 0c48.2 0 90.2-26.6 112-66c21.8 39.4 63.8 66 112 66l16 0 0-32-16 0c-53 0-96-43-96-96l0-112 48 0 16 0 0-32-16 0-48 0 0-112c0-53 43-96 96-96l16 0 0-32L240 0c-48.2 0-90.2 26.6-112 66z"/></svg>

<svg xmlns="http://www.w3.org/2000/svg" viewBox="0 0 256 512"><!--! Font Awesome Pro 6.4.0 by @fontawesome - https://fontawesome.com License - https://fontawesome.com/license (Commercial License) Copyright 2023 Fonticons, Inc. --><path d="M128 66C106.2 26.6 64.2 0 16 0H0V32H16c53 0 96 43 96 96V240H64 48v32H64h48V384c0 53-43 96-96 96H0v32H16c48.2 0 90.2-26.6 112-66c21.8 39.4 63.8 66 112 66h16V480H240c-53 0-96-43-96-96V272h48 16V240H192 144V128c0-53 43-96 96-96h16V0H240c-48.2 0-90.2 26.6-112 66z"/></svg>
